X: 1
T: Johnny Ward's
M: 4/4
L: 1/8
R: reel
S: Fisherstreet (transposed)
K: Gmaj
d2BG dGBG|A2FA D3c|d2BG DGBd|1gbfa egfe:|2 gbfa egfa||
|:eA~A2 egfe|d2BG DGBd|eA~A2 egfa|1 gbfa egfa:|2 gbfa egfe||
